justvector/metacafe.svg

<?xml version="1.0" encoding="iso-8859-1"?>
<!-- Generator: Adobe Illustrator 15.0.0, SVG Export Plug-In . SVG Version: 6.00 Build 0)  -->
<!DOCTYPE svg PUBLIC "-//W3C//DTD SVG 1.1//EN" "http://www.w3.org/Graphics/SVG/1.1/DTD/svg11.dtd">
<svg version="1.1" id="Icons" xmlns="http://www.w3.org/2000/svg" xmlns:xlink="http://www.w3.org/1999/xlink" x="0px" y="0px"
	 width="100px" height="100px" viewBox="0 0 100 100" style="enable-background:new 0 0 100 100;" xml:space="preserve">
<path id="Metacafe" style="fill-rule:evenodd;clip-rule:evenodd;" d="M86.838,95l-13.202-9.559L60.438,95l5.039-15.471
	l-13.202-9.554h16.321l5.04-15.472l5.044,15.472H95l-13.202,9.554L86.838,95L86.838,95z M61.69,80.758
	c-2.782-2.011-19.325-13.992-19.325-13.992s20.454,0,23.887,0c1.063-3.264,7.384-22.646,7.384-22.646s6.317,19.382,7.378,22.646
	c1.67,0,7.359,0,12.759,0L73.636,5L57.431,54.697H5l52.698,38.314C59.385,87.842,61.166,82.353,61.69,80.758L61.69,80.758z"/>
</svg>

<?xml version="1.0" encoding="UTF-8" standalone="no"?>
<!DOCTYPE svg PUBLIC "-//W3C//DTD SVG 1.1//EN" "http://www.w3.org/Graphics/SVG/1.1/DTD/svg11.dtd">
<svg width="100%" height="100%" viewBox="0 0 100 100" version="1.1" xmlns="http://www.w3.org/2000/svg" xmlns:xlink="http://www.w3.org/1999/xlink" xml:space="preserve" xmlns:serif="http://www.serif.com/" style="fill-rule:evenodd;clip-rule:evenodd;stroke-linejoin:round;stroke-miterlimit:2;">
    <path id="Metacafe" d="M86.838,95L73.636,85.441L60.438,95L65.477,79.529L52.275,69.975L68.596,69.975L73.636,54.503L78.68,69.975L95,69.975L81.798,79.529L86.838,95ZM61.69,80.758C58.908,78.747 42.365,66.766 42.365,66.766C42.365,66.766 65.163,69.975 68.596,69.975C69.659,66.711 73.636,44.12 73.636,44.12C73.636,44.12 79.953,63.502 81.014,66.766L93.773,66.766L93.84,2.914L1.867,2.917L4.283,93.449L57.698,93.011C59.385,87.842 61.166,82.353 61.69,80.758Z"/>
</svg>
